X: 1
T: Meet Me On The Dance Floor
M: 6/8
L: 1/8
R: Jig
K: Emin
|:EDE GFE|F2E D2D|~E3 GFE|A2G F2D|EDE GFE|
|F2E D2D|1AGF GFD|~E3 E2D:|2BAG AGF|~E3 E2F||
|:GEE AEB,|DDG DB,G|EEA EAF|GFE DB,G|EFG EFG|
|DFA DFA|1EEG B,EG|EF^D ~E2F:|2BAG AGF|EF^D ~E2=D||
